X:1
T: Colonel L. Stewart's Reel
C:
R:Reel
Q: 232
K:G
M:4/4
L:1/8
|:G2 g2 ag1/2f1/2 g2|dg Bg dg Bg|G2 g2 ag1/2f1/2 g2|fa AB cB cA|
G2 g2 ag1/2f1/2 g2|dg Bg dg Bg|G2 g2 ag1/2f1/2 g2|fg1/2a1/2 AB cd ef|
gb eg dg B2|gb eg fg af|gb eg dg B2|AB cd ed ef|
gb eg dg B2|gb eg fg af|gb fa eg dg|ca Bg AB cA:|
